X:498
T:Cumberland Rangers Troop,The. RH.498
R:jig march
S:Rev.R.Harrison’s MS,c1815,Cumbria
O:England
A:Temple Sowerby,Cumbria
Z:vmp.Simon Wilson. Review PJH, 2008.
M:3/8
L:1/8
Q:3/8=80
K:G
G>B A/F/|G>B A/F/|GGA|Bdg|\
G>B A/F/|G>B A/F/|DEF|G3:|!
” F”g2g|gfe|edc|B/A/B/c/d|\
g2g|gfe|edc|B/c/d/”$”B/c/A/||!
” P”.B.B.B|B>cd|edc|B/c/d/e/f/g/|\
BBB|B>cd|edc|B/c/d/” DC”B/c/A/|]

